build/Karasa-Jaga/scalable/apps/accessories-character-map-symbolic.svg

<svg height="16" width="16" xmlns="http://www.w3.org/2000/svg"><g fill="#bebebe"><path d="m2.5 1c-.831 0-1.5.446-1.5 1v12c0 .554.669 1 1.5 1h11c.831 0 1.5-.446 1.5-1v-12c0-.554-.669-1-1.5-1zm2 1h7c.831 0 1.5.446 1.5 1v9c0 .554-.700974.771707-1.5 1-2.3333333.666667-4.6666667.666667-7 0-.7990264-.228293-1.5-.446-1.5-1v-9c0-.554.669-1 1.5-1z"/><path d="m7.4671342 11.760956-.0426492-.926095h-.048742c-.1706009.182783-.3371353.341194-.4996037.475233-.158415.129979-.3249494.237617-.4996037.322915-.1746617.0853-.3635361.148256-.5666237.188874-.2030939.04062-.4325865.06093-.6884783.06093-.2802677 0-.5300693-.04062-.7494055-.121855-.2193396-.07718-.4000903-.197-.5422527-.359473-.1381028-.166534-.2315246-.373686-.2802654-.621458-.0446809-.251832-.0345264-.548344.0304635-.8895384.1340389-.6661358.4711696-1.1779244 1.0113929-1.5353675.5402194-.3574362 1.293686-.5524035 2.2604021-.5849019l1.1271547-.0426491.0852984-.4203982c.05686-.2721372.0731072-.4995989.0487419-.6823856-.0203141-.1827766-.0751492-.3290018-.1645039-.4386764-.0893653-.1137252-.2132506-.1949617-.3716564-.2437091-.1543539-.0487359-.3371356-.0731068-.5483456-.0731127-.337135.0000059-.6600492.0487477-.9687438.1462254-.3087013.0974893-.6113065.215282-.9078164.3533781l-.225431-.8347037c.3330665-.1624664.696599-.3005681 1.0905984-.4143055.3939926-.1137242.7940813-.1705895 1.2002674-.1705964.4143005.0000069.7636166.042656 1.0479494.1279472.2843213.081243.507721.2132522.6701999.3960276.1624664.1787261.2640116.4082185.3046366.6884782.040612.2802707.020302.6194323-.060928 1.0174857l-.9139085 4.5817313h-.7981475m-1.882653-.773776c.2477678 0 .485384-.03859.7128493-.115762.2274579-.07717.4325795-.192935.6153655-.347286.1868392-.158409.3472809-.355407.4813255-.5909943.1380969-.2396453.2396423-.5199105.3046364-.8407965l.1157618-.6031802-.8773528.0426492c-.3696294.0162493-.6844201.0568687-.9443729.1218545-.2599595.0649922-.4772666.1563832-.6519219.2741727-.1705989.1137337-.3046388.2538664-.40212.4203984-.0974859.162475-.1665367.3472876-.2071528.5544382-.073115.373689-.030466.647861.1279473.822518.1624704.174659.4041484.261988.7250346.261988" stroke-width=".311948"/><path d="m6.2574656 2.8401501 1.2526978 1.6381431.8672521.0963618-.8672521-1.7987455z" stroke-width=".947553"/></g></svg>

<?xml version="1.0" encoding="UTF-8" standalone="no"?>
<svg
   xmlns:dc="http://purl.org/dc/elements/1.1/"
   xmlns:cc="http://creativecommons.org/ns#"
   xmlns:rdf="http://www.w3.org/1999/02/22-rdf-syntax-ns#"
   xmlns:svg="http://www.w3.org/2000/svg"
   xmlns="http://www.w3.org/2000/svg"
   xmlns:sodipodi="http://sodipodi.sourceforge.net/DTD/sodipodi-0.dtd"
   xmlns:inkscape="http://www.inkscape.org/namespaces/inkscape"
   height="16"
   width="16"
   version="1.1"
   id="svg10"
   sodipodi:docname="accessories-character-map-symbolic.svg"
   inkscape:version="0.92.4 (unknown)">
  <metadata
     id="metadata16">
    <rdf:RDF>
      <cc:Work
         rdf:about="">
        <dc:format>image/svg+xml</dc:format>
        <dc:type
           rdf:resource="http://purl.org/dc/dcmitype/StillImage" />
        <dc:title></dc:title>
      </cc:Work>
    </rdf:RDF>
  </metadata>
  <defs
     id="defs14" />
  <sodipodi:namedview
     pagecolor="#ffffff"
     bordercolor="#666666"
     borderopacity="1"
     objecttolerance="10"
     gridtolerance="10"
     guidetolerance="10"
     inkscape:pageopacity="0"
     inkscape:pageshadow="2"
     inkscape:window-width="1366"
     inkscape:window-height="706"
     id="namedview12"
     showgrid="true"
     inkscape:zoom="14.75"
     inkscape:cx="2.3457159"
     inkscape:cy="3.8704902"
     inkscape:window-x="0"
     inkscape:window-y="0"
     inkscape:window-maximized="1"
     inkscape:current-layer="svg10">
    <inkscape:grid
       type="xygrid"
       id="grid823" />
  </sodipodi:namedview>
  <path
     style="opacity:1;fill:#bebebe;fill-opacity:1;stroke:none;stroke-width:1;stroke-miterlimit:4;stroke-dasharray:none;stroke-opacity:1"
     d="M 2.5,1 C 1.669,1 1,1.446 1,2 v 12 c 0,0.554 0.669,1 1.5,1 h 11 C 14.331,15 15,14.554 15,14 V 2 C 15,1.446 14.331,1 13.5,1 Z m 2,1 h 7 C 12.331,2 13,2.446 13,3 v 9 c 0,0.554 -0.700974,0.771707 -1.5,1 -2.3333333,0.666667 -4.6666667,0.666667 -7,0 C 3.7009736,12.771707 3,12.554 3,12 V 3 C 3,2.446 3.669,2 4.5,2 Z"
     id="rect830"
     inkscape:connector-curvature="0"
     sodipodi:nodetypes="ssssssssssssssssss" />
  <path
     style="fill:#bebebe;stroke-width:0.31194767"
     inkscape:connector-curvature="0"
     id="path4"
     d="M 7.4671342,11.760956 7.424485,10.834861 H 7.375743 c -0.1706009,0.182783 -0.3371353,0.341194 -0.4996037,0.475233 -0.158415,0.129979 -0.3249494,0.237617 -0.4996037,0.322915 -0.1746617,0.0853 -0.3635361,0.148256 -0.5666237,0.188874 -0.2030939,0.04062 -0.4325865,0.06093 -0.6884783,0.06093 -0.2802677,0 -0.5300693,-0.04062 -0.7494055,-0.121855 -0.2193396,-0.07718 -0.4000903,-0.197 -0.5422527,-0.359473 C 3.6916726,11.234951 3.5982508,11.027799 3.54951,10.780027 3.5048291,10.528195 3.5149836,10.231683 3.5799735,9.8904886 3.7140124,9.2243528 4.0511431,8.7125642 4.5913664,8.3551211 5.1315858,7.9976849 5.8850524,7.8027176 6.8517685,7.7702192 L 7.9789232,7.7275701 8.0642216,7.3071719 C 8.1210816,7.0350347 8.1373288,6.807573 8.1129635,6.6247863 8.0926494,6.4420097 8.0378143,6.2957845 7.9484596,6.1861099 7.8590943,6.0723847 7.735209,5.9911482 7.5768032,5.9424008 7.4224493,5.8936649 7.2396676,5.869294 7.0284576,5.8692881 6.6913226,5.869294 6.3684084,5.9180358 6.0597138,6.0155135 5.7510125,6.1130028 5.4484073,6.2307955 5.1518974,6.3688916 L 4.9264664,5.5341879 C 5.2595329,5.3717215 5.6230654,5.2336198 6.0170648,5.1198824 6.4110574,5.0061582 6.8111461,4.9492929 7.2173322,4.949286 c 0.4143005,6.9e-6 0.7636166,0.042656 1.0479494,0.1279472 0.2843213,0.081243 0.507721,0.2132522 0.6701999,0.3960276 0.1624664,0.1787261 0.2640116,0.4082185 0.3046366,0.6884782 0.040612,0.2802707 0.020302,0.6194323 -0.060928,1.0174857 L 8.2652816,11.760956 H 7.4671341 M 5.5844811,10.98718 c 0.2477678,0 0.485384,-0.03859 0.7128493,-0.115762 0.2274579,-0.07717 0.4325795,-0.192935 0.6153655,-0.347286 C 7.0995351,10.365723 7.2599768,10.168725 7.3940214,9.9331377 7.5321183,9.6934924 7.6336637,9.4132272 7.6986578,9.0923412 L 7.8144196,8.489161 6.9370668,8.5318102 C 6.5674374,8.5480595 6.2526467,8.5886789 5.9926939,8.6536647 5.7327344,8.7186569 5.5154273,8.8100479 5.340772,8.9278374 5.1701731,9.0415711 5.0361332,9.1817038 4.938652,9.3482358 4.8411661,9.5107108 4.7721153,9.6955234 4.7314992,9.902674 c -0.073115,0.373689 -0.030466,0.647861 0.1279473,0.822518 0.1624704,0.174659 0.4041484,0.261988 0.7250346,0.261988" />
  <path
     style="fill:#bebebe;stroke-width:0.94755346"
     inkscape:connector-curvature="0"
     id="path6"
     d="M 6.2574656,2.8401501 7.5101634,4.4782932 8.3774155,4.574655 7.5101634,2.7759095 Z" />
</svg>
